Newaita/actions/22/kdenlive-align-right.svg

<svg height="22" viewBox="0 0 22 22" width="22" xmlns="http://www.w3.org/2000/svg"><g fill="#424242"><path d="m17.28125 3.808594h-.910156c-.25 0-.453125.207031-.453125.457031v13.644531c0 .25.203125.453125.453125.453125h.910156c.253906 0 .457031-.203125.457031-.453125v-13.644531c0-.25-.203125-.457031-.457031-.457031zm0 0"/><path d="m5.003906 11.996094h8.183594c.503906 0 .910156-.40625.910156-.910156 0-.5-.40625-.910157-.910156-.910157h-8.183594c-.503906 0-.910156.410157-.910156.910157 0 .503906.40625.910156.910156.910156zm0 0"/><path d="m6.113281 5.296875 6.433594 6.433594c.355469.355469.929687.355469 1.285156 0s.355469-.933594 0-1.289063l-6.429687-6.429687c-.355469-.355469-.933594-.355469-1.289063 0s-.355469.929687 0 1.285156zm0 0"/><path d="m7.402344 18.164062 6.429687-6.433593c.355469-.355469.355469-.929688 0-1.285157-.355469-.355468-.929687-.355468-1.285156 0l-6.433594 6.429688c-.355469.355469-.355469.933594 0 1.289062.355469.355469.933594.355469 1.289063 0zm0 0"/></g></svg>

<?xml version="1.0" encoding="UTF-8"?>
<svg xmlns="http://www.w3.org/2000/svg" xmlns:xlink="http://www.w3.org/1999/xlink" width="22px" height="22px" viewBox="0 0 22 22" version="1.1">
<g id="surface1">
<path style=" stroke:none;fill-rule:nonzero;fill:rgb(25.882354%,25.882354%,25.882354%);fill-opacity:1;" d="M 17.28125 3.808594 L 16.371094 3.808594 C 16.121094 3.808594 15.917969 4.015625 15.917969 4.265625 L 15.917969 17.910156 C 15.917969 18.160156 16.121094 18.363281 16.371094 18.363281 L 17.28125 18.363281 C 17.535156 18.363281 17.738281 18.160156 17.738281 17.910156 L 17.738281 4.265625 C 17.738281 4.015625 17.535156 3.808594 17.28125 3.808594 Z M 17.28125 3.808594 "/>
<path style=" stroke:none;fill-rule:nonzero;fill:rgb(25.882354%,25.882354%,25.882354%);fill-opacity:1;" d="M 5.003906 11.996094 L 13.1875 11.996094 C 13.691406 11.996094 14.097656 11.589844 14.097656 11.085938 C 14.097656 10.585938 13.691406 10.175781 13.1875 10.175781 L 5.003906 10.175781 C 4.5 10.175781 4.09375 10.585938 4.09375 11.085938 C 4.09375 11.589844 4.5 11.996094 5.003906 11.996094 Z M 5.003906 11.996094 "/>
<path style=" stroke:none;fill-rule:nonzero;fill:rgb(25.882354%,25.882354%,25.882354%);fill-opacity:1;" d="M 6.113281 5.296875 L 12.546875 11.730469 C 12.902344 12.085938 13.476562 12.085938 13.832031 11.730469 C 14.1875 11.375 14.1875 10.796875 13.832031 10.441406 L 7.402344 4.011719 C 7.046875 3.65625 6.46875 3.65625 6.113281 4.011719 C 5.757812 4.367188 5.757812 4.941406 6.113281 5.296875 Z M 6.113281 5.296875 "/>
<path style=" stroke:none;fill-rule:nonzero;fill:rgb(25.882354%,25.882354%,25.882354%);fill-opacity:1;" d="M 7.402344 18.164062 L 13.832031 11.730469 C 14.1875 11.375 14.1875 10.800781 13.832031 10.445312 C 13.476562 10.089844 12.902344 10.089844 12.546875 10.445312 L 6.113281 16.875 C 5.757812 17.230469 5.757812 17.808594 6.113281 18.164062 C 6.46875 18.519531 7.046875 18.519531 7.402344 18.164062 Z M 7.402344 18.164062 "/>
</g>
</svg>
